X: 15
T: Miss Clementine Stewart's Strathspey
C: 
R: strathspey
Q: 
B: William Shepherd "1st Collection" 1793 p.1 #5
F: http://imslp.org/wiki/File:PMLP73094-Shepherd_Collections_HMT.pdf
C: William Shepherd (17??-1812)
Z: 2012 John Chambers <jc:trillian.mit.edu>
M: C|
L: 1/8
K: Em
E | B,<EE>F G>ABG | F<dA<d F<DA>F | E/E/ETE>F G>AB<G | A<Fd<F E/E/EE :|
B | e>f {ef}g>e f>^de>B | dBAd FDAF | e>f {ef}g>e f>^deB | AFdF E/E/EE ||
B | e>f {ef}g>e f>^de>B | dBAd FDAF | E>GF>A G>BA>e | d/^c/B/A/ dF E/E/EE |]
